X:27
T:Earl of Glencairn's Strathspey
C:William Marshall
S:Petrie's Third Collection of Strathspey Reels and Country Dances &c.
Z:Steve Wyrick <sjwyrick'at'gmail'dot'com>, 7/30/05
N:Petrie's Third Collection, page 12
L:1/8
M:C
R:Strathspey
K:G
B|G>DG<B G,B,G,B|c>AB>G E<AA<B|G>DG<B G,>B,G,g|dB c/B/A/G/ DGG:|B|Gg Tg2 d>gb>g|agbg ea Ta2|
dg Tg2 d>gba|g>ed<B G/G/G G2|Gg (Tg3/2f//g//) dgbg|a>gb<g ea ab/a/|g<db>a gdeg|e/d/c/B/ c/B/A/G/ DGG|]
